packages/core/src/svgs/tokens/mono/TBTC.svg

<svg width="24" height="24" viewBox="0 0 24 24" fill="none" xmlns="http://www.w3.org/2000/svg">
<path fill-rule="evenodd" clip-rule="evenodd" d="M22 12C22 17.5229 17.5229 22 12 22C6.47705 22 2 17.5229 2 12C2 6.47705 6.47705 2 12 2C17.5229 2 22 6.47705 22 12ZM19.647 12C19.647 16.2235 16.2235 19.647 12 19.647C7.77646 19.647 4.35293 16.2235 4.35293 12C4.35293 7.77646 7.77646 4.35293 12 4.35293C16.2235 4.35293 19.647 7.77646 19.647 12ZM13.1764 8.47058C13.1764 8.7826 13.0525 9.08184 12.8319 9.30242C12.6112 9.52313 12.312 9.64707 12 9.64707C11.6879 9.64707 11.3887 9.52313 11.1681 9.30242C10.9474 9.08184 10.8235 8.7826 10.8235 8.47058C10.8235 8.15855 10.9474 7.85932 11.1681 7.63869C11.3887 7.41805 11.6879 7.29411 12 7.29411C12.312 7.29411 12.6112 7.41805 12.8319 7.63869C13.0525 7.85932 13.1764 8.15855 13.1764 8.47058ZM15.5294 11.4118H8.47058V12.5882H11.4118V16.1177H12.5882V12.5882H15.5294V11.4118Z" fill="white"/>
</svg>

<svg xmlns="http://www.w3.org/2000/svg" width="24" height="24" fill="none" viewBox="0 0 24 24">
    <path fill="#fff" fill-rule="evenodd" d="M22 12c0 5.523-4.477 10-10 10S2 17.523 2 12 6.477 2 12 2s10 4.477 10 10m-2.353 0a7.647 7.647 0 1 1-15.294 0 7.647 7.647 0 1 1 15.294 0m-6.47-3.53a1.176 1.176 0 1 1-2.353 0 1.176 1.176 0 0 1 2.352 0m2.352 2.942H8.471v1.176h2.94v3.53h1.177v-3.53h2.941z" clip-rule="evenodd"/>
</svg>
